X: 21
T:Alborada de Pontecaldelas
M:2/4
L:1/16
Q:120
C:Trad.
R:Alborada
B:Leccións de Gaita. OTERO COVELO
K:C
c6BA| GAGF EFED |
E2C2 DEFG | A3G AGAB | G6C2 | c6BA | GAGF EFED |
E2C2 DEFG | A3G AGAB | c7 G | c3G c3G | c8 |
|: G4 AGFA | G6C2 | G4 AGFA | G4 C2C2 | c3B AGAB |
cdcB AGAB | cdcB AGAB | G8 | {A}G4 {A}G4 | {A}G2EG FEFD |
E2CE DCDB, | C8 :| G3A _BABG | A_BAG F2C2 |
F3G _AGAF | G8 | E3F GAGF |EFED C2C2 |
D3C B,2D2 |1C8 :|2 C4 {D}C2{D}C2 |: c8| BcBA GABG |
c4 C2{D}C2| c8| BcBA GABG | c4 G2A2 | _BcAB G2B2| 
A4 F2G2 _A_BAG F2A2 | G8| D3E {G}FEFD |
E3F G2C2 | D3E DCB,D |1 C4 {D}C2{D}C2 :|2 C6 G2 |C6 G2 |
C8| c3C B,CDE |: F3G A_BAG | FG{A}GE C2C2| 
F3G A_BAF | G4 {A}G2{A}G2| c2_B_A GABG |

